azure-patterns/svg-shield-unlock.svg

<svg xmlns="http://www.w3.org/2000/svg" viewBox="0 0 96 96">
                                
                            
<path d="M48.2196 0.404297C38.1985 6.1643 27.2175 10.358 15.6133 12.699V70.3496L48.068 95.9327L81.0617 70.4169V12.699C69.4575 10.3748 58.4933 6.1643 48.4554 0.404297H48.2196Z" fill="#0078D4"></path>
<path d="M60.6987 37.5578C60.6987 30.6189 55.0229 24.9263 48.0671 24.9263C41.8355 24.9263 36.6145 29.5073 35.6208 35.4863H40.7913C41.145 34.2568 41.8019 33.1452 42.7282 32.2189C44.1598 30.7873 46.0629 29.9957 48.0671 29.9957C50.0713 29.9957 51.9745 30.7873 53.4061 32.2189C54.8377 33.6505 55.6292 35.5536 55.6292 37.5578C55.6292 37.9621 55.6292 39.1073 55.6292 40.6063H35.4355V65.9368H60.6819V42.2231C60.6987 39.9494 60.6987 38.0968 60.6987 37.5578Z" fill="#50E6FF"></path>
<path d="M47.9998 56.3031C49.6927 56.3031 51.0651 54.9308 51.0651 53.2379C51.0651 51.545 49.6927 50.1726 47.9998 50.1726C46.3069 50.1726 44.9346 51.545 44.9346 53.2379C44.9346 54.9308 46.3069 56.3031 47.9998 56.3031Z" fill="#0078D4"></path>
</svg>

<svg xmlns="http://www.w3.org/2000/svg" viewBox="0 0 96 96"><path d="M48.22.404A108.42 108.42 0 0 1 15.613 12.7v57.65l32.455 25.584 32.994-25.516V12.699C69.457 10.375 58.493 6.164 48.455.404h-.235z" fill="#0078D4"/><path d="M60.699 37.558c0-6.94-5.676-12.632-12.632-12.632-6.231 0-11.453 4.581-12.446 10.56h5.17a7.552 7.552 0 0 1 1.937-3.267 7.52 7.52 0 0 1 10.678 0 7.52 7.52 0 0 1 2.223 5.339v3.048H35.435v25.33h25.247V42.224c.017-2.274.017-4.126.017-4.665z" fill="#50E6FF"/><path d="M48 56.303a3.065 3.065 0 1 0 0-6.13 3.065 3.065 0 0 0 0 6.13z" fill="#0078D4"/></svg>
